X: 154
T: Yuanzou gaofei  gebuxiage ni
%%abc-version 2.0
%%abcx-abcm2ps-target-version 5.9.1 (29 Sep 2008)
%%abc-creator hum2abc beta
%%abcx-conversion-date 2013/10/02 07:52:29
%%abc-edited-by Helmut Schaffrath
%%humdrum-veritas 1220147687
%%humdrum-veritas-data 3758957997
%%continueall 1
%%barnumbers 0
L: 1/8
M: 2/4
K: G
A FE2 [I:setbarnb 1]| 
e> e B e | 
B e A E | 
G4 | 
B2e2 | 
G E d B | 
A B/ d/ F E | 
D4 |]  



